X:1
T:Ständchen
T:Friedrich August Schulz
T:Ernst Busse
T:Ständchen
T:CPDL - Creative Commons Attribution Non Commercial 3.0
C:Friedrich August Schulz
Z:Ernst Busse
Z:CPDL - Creative Commons Attribution Non Commercial 3.0
%%score [ ( 1 2 ) ( 3 4 ) ]
L:1/8
Q:1/4=80
M:3/4
K:Bb
V:1 treble-8 nm="Tenor"
V:2 treble-8 
V:3 bass nm="Bass"
V:4 bass 
V:1
!p!"^Andante"!<(! d4 e2!<)! | !breath!f4 d2 | (c3 B) c2 | d4 d2 | f4 d2 |!<(! c4 f2!<)! | %6
w: 1\-3. Schlumm- re|sanft! 1. In|heil'- * ger|Stil- le|schlie- ße|dei- ne|
w: |* 2. In|dei- * ne|Nä- he|zog's mich|mit ge-|
w: |* 3. Die|Mor- * gen-|son- ne|we- cke|dich mit|
 (=e3 d) e2 | f4 z2 | _e4 e2 | d4 B2 | (A3 G) A2 | (B3 c) d2 |!<(! e4 d2!<)! |!mf! g4 (3fec | %14
w: Au- * gen|zu,|und ein|schö- ner|Traum _ er-|fül- * le|noch dein|Herz in _ _|
w: walt'- * ger|Macht!|Ob ich|dich auch|nicht _ mehr|se- * he,|mei- ne|treu- e _ _|
w: stil- * ler|Pracht,|we- cke|dich zu|neu- * er|Won- * ne!|teu- res|Lieb- chen, _ _|
"^dim." B4 A2 | !fermata!B4 z2 |] %16
w: sü- ßer|Ruh!|
w: Lie- be|wacht!|
w: gu- te|Nacht!|
V:2
 B4 c2 | d4 B2 | (A3 G) A2 | B4 B2 | d4 B2 | A4 c2 | c4 c2 | c4 x2 | c4 c2 | B4 F2 | F4 F2 | %11
 F4 B2 | B4 B2 | B4 c2 | d4 e2 | d4 x2 |] %16
V:3
!p!!<(! F,4 F,2!<)! | !breath!B,4 F,2 | F,4 F,2 | F,4 F,2 | B,4 F,2 |!<(! F,4 A,2!<)! | G,4 B,2 | %7
 A,4 z2 | F,4 F,2 | F,4 D,2 | E,4 E,2 | D,4 B,2 |!<(! B,4 B,2!<)! |!mf! G,4 G,2 |"^dim." F,4 F,2 | %15
 !fermata!F,4 z2 |] %16
V:4
 B,,4 B,,2 | B,,4 B,,2 | F,,4 F,,2 | B,,4 B,,2 | B,,4 B,,2 | C,4 C,2 | C,4 C,2 | F,4 x2 | %8
 A,,4 A,,2 | B,,4 B,,2 | F,,4 F,,2 | B,,4 _A,2 | G,4 F,2 | E,4 E,2 | F,4 F,,2 | B,,4 x2 |] %16

